X: 1
T: Brenda McCann's
R: hornpipe
M: 4/4
L: 1/8
K: Dmaj
|:(3ABc|dAFA BGEG|(3FED FA dcBA|Eeef gefd|ecAB AGFE|
Dddc dAFD|Eeef gecA|dfaf bgec|d2 dc d2:|
|:(3ABc|dfaf bgec|dfaf gecA|dfaf gefd|B2 BA (3Bcd AG|
Fddc dAFD|Eeef gecA|dfaf bgec|d2 cd d2:|

